X:323
T: ALLES WAS WIR LIEBEN LEBE
N: F0555
O: Europa, Mitteleuropa, Deutschland
R: Studenten - Lied, Geselligkeit
M: 6/8
L: 1/8
K: A
EFG | A2ABAB | c6 | A2z
cBA | G2GBAF | E3
EFG | A2ABAB | c6 | A2z
cBA | G2GBAF | E3
B2B | dcBA2A | AGA
B2B | dcBA2A | AGA
E2A | c2eBAB | c3
E2A | c2eBcB | A3

@@@ Tune index: 5754
